_inc/systems/logos/auto-lightgun.svg

<?xml version="1.0" encoding="utf-8"?>
<svg viewBox="0 0 200 40" xmlns="http://www.w3.org/2000/svg">
  <path d="M 60.682 24.563 L 59.847 29.351 L 48.511 29.351 L 51.792 10.649 L 57.46 10.649 L 55.014 24.563 L 60.682 24.563 Z M 66.648 29.351 L 60.981 29.351 L 64.262 10.649 L 69.93 10.649 L 66.648 29.351 Z M 80.312 23.845 L 80.312 23.845 L 80.461 23.037 L 79.029 23.037 L 79.834 18.459 L 86.666 18.459 L 84.906 28.453 L 84.906 28.453 C 82.48 29.351 80.043 29.8 77.597 29.8 L 77.597 29.8 L 77.597 29.8 C 75.15 29.8 73.384 29.311 72.297 28.334 L 72.297 28.334 L 72.297 28.334 C 71.216 27.356 70.676 25.85 70.676 23.816 L 70.676 23.816 L 70.676 23.816 C 70.676 22.957 70.815 21.691 71.094 20.015 L 71.094 20.015 L 71.094 20.015 C 71.69 16.544 72.744 14.04 74.256 12.504 L 74.256 12.504 L 74.256 12.504 C 75.768 10.968 78.273 10.2 81.774 10.2 L 81.774 10.2 L 81.774 10.2 C 82.509 10.2 83.447 10.279 84.587 10.439 L 84.587 10.439 L 84.587 10.439 C 85.734 10.599 86.576 10.779 87.113 10.978 L 87.113 10.978 L 85.472 15.557 L 85.472 15.557 C 83.981 15.277 82.612 15.138 81.366 15.138 L 81.366 15.138 L 81.366 15.138 C 80.126 15.138 79.238 15.237 78.701 15.437 L 78.701 15.437 L 78.701 15.437 C 78.164 15.636 77.845 16.035 77.746 16.634 L 77.746 16.634 L 76.284 25.102 L 78.164 25.102 L 78.164 25.102 C 78.84 25.102 79.34 25.029 79.665 24.883 L 79.665 24.883 L 79.665 24.883 C 79.996 24.73 80.212 24.384 80.312 23.845 Z M 103.253 29.351 L 97.584 29.351 L 98.718 22.738 L 94.452 22.738 L 93.319 29.351 L 87.65 29.351 L 90.932 10.649 L 96.6 10.649 L 95.436 17.262 L 99.702 17.262 L 100.866 10.649 L 106.534 10.649 L 103.253 29.351 Z M 122.852 10.649 L 121.987 15.437 L 117.87 15.437 L 115.453 29.351 L 109.786 29.351 L 112.202 15.437 L 108.115 15.437 L 108.98 10.649 L 122.852 10.649 Z M 132.1 23.845 L 132.1 23.845 L 132.249 23.037 L 130.817 23.037 L 131.622 18.459 L 138.454 18.459 L 136.694 28.453 L 136.694 28.453 C 134.267 29.351 131.831 29.8 129.385 29.8 L 129.385 29.8 L 129.385 29.8 C 126.939 29.8 125.172 29.311 124.085 28.334 L 124.085 28.334 L 124.085 28.334 C 123.004 27.356 122.464 25.85 122.464 23.816 L 122.464 23.816 L 122.464 23.816 C 122.464 22.957 122.603 21.691 122.882 20.015 L 122.882 20.015 L 122.882 20.015 C 123.478 16.544 124.532 14.04 126.044 12.504 L 126.044 12.504 L 126.044 12.504 C 127.555 10.968 130.061 10.2 133.561 10.2 L 133.561 10.2 L 133.561 10.2 C 134.297 10.2 135.235 10.279 136.376 10.439 L 136.376 10.439 L 136.376 10.439 C 137.522 10.599 138.365 10.779 138.902 10.978 L 138.902 10.978 L 137.261 15.557 L 137.261 15.557 C 135.769 15.277 134.4 15.138 133.154 15.138 L 133.154 15.138 L 133.154 15.138 C 131.914 15.138 131.026 15.237 130.489 15.437 L 130.489 15.437 L 130.489 15.437 C 129.952 15.636 129.634 16.035 129.534 16.634 L 129.534 16.634 L 128.073 25.102 L 129.952 25.102 L 129.952 25.102 C 130.628 25.102 131.128 25.029 131.453 24.883 L 131.453 24.883 L 131.453 24.883 C 131.784 24.73 132 24.384 132.1 23.845 Z M 142.302 10.649 L 147.97 10.649 L 145.494 24.683 L 147.523 24.683 L 147.523 24.683 C 148.219 24.683 148.716 24.59 149.014 24.404 L 149.014 24.404 L 149.014 24.404 C 149.312 24.211 149.521 23.776 149.641 23.097 L 149.641 23.097 L 151.848 10.649 L 157.517 10.649 L 155.667 21.152 L 155.667 21.152 C 155.369 22.848 155.024 24.214 154.633 25.252 L 154.633 25.252 L 154.633 25.252 C 154.248 26.289 153.708 27.166 153.012 27.885 L 153.012 27.885 L 153.012 27.885 C 152.316 28.603 151.454 29.102 150.426 29.381 L 150.426 29.381 L 150.426 29.381 C 149.405 29.661 148.11 29.8 146.538 29.8 L 146.538 29.8 L 146.538 29.8 C 144.132 29.8 142.444 29.434 141.477 28.703 L 141.477 28.703 L 141.477 28.703 C 140.515 27.978 140.035 26.728 140.035 24.953 L 140.035 24.953 L 140.035 24.953 C 140.035 23.975 140.174 22.708 140.452 21.152 L 140.452 21.152 L 142.302 10.649 Z M 173.298 29.351 L 167.957 29.351 L 164.915 22.708 L 164.915 22.708 C 164.835 22.568 164.796 22.372 164.796 22.119 L 164.796 22.119 L 164.796 22.119 C 164.796 21.873 164.815 21.591 164.855 21.272 L 164.855 21.272 L 164.617 21.272 L 163.214 29.351 L 157.546 29.351 L 160.828 10.649 L 166.168 10.649 L 169.21 17.292 L 169.21 17.292 C 169.27 17.432 169.3 17.628 169.3 17.881 L 169.3 17.881 L 169.3 17.881 C 169.3 18.127 169.28 18.409 169.24 18.728 L 169.24 18.728 L 169.479 18.728 L 170.911 10.649 L 176.579 10.649 L 173.298 29.351 Z" style="white-space: pre; fill: rgb(255, 255, 255);"/>
  <path d="M 28.513 30.389 C 28.236 30.301 27.915 30.17 27.828 30.082 C 27.537 29.849 27.6 28.125 27.952 26.899 C 28.57 24.65 29.696 22.824 31.844 20.605 C 33.509 18.867 33.714 18.429 33.279 17.479 C 33.018 16.939 32.16 16.238 31.752 16.238 C 31.621 16.238 31.388 16.136 31.228 16.019 C 31.082 15.902 30.718 15.8 30.427 15.8 C 29.742 15.8 29.538 15.625 28.841 14.413 C 28.173 13.259 28.159 13.084 28.541 12.076 L 28.819 11.346 L 29.592 11.273 C 30.233 11.2 30.627 11.039 31.663 10.353 C 32.364 9.9 33.094 9.521 33.269 9.521 C 33.443 9.521 33.808 9.652 34.07 9.813 C 34.492 10.075 34.798 10.105 37.027 10.105 C 39.301 10.105 39.549 10.134 39.942 10.397 C 40.32 10.674 40.378 10.689 40.787 10.484 C 41.152 10.28 41.224 10.28 41.297 10.47 C 41.355 10.645 41.442 10.66 41.749 10.514 C 42.011 10.397 42.172 10.397 42.273 10.499 C 42.39 10.616 42.535 10.616 42.798 10.499 C 43.075 10.382 43.177 10.382 43.264 10.528 C 43.366 10.674 43.453 10.689 43.701 10.543 C 43.95 10.426 44.081 10.411 44.226 10.543 C 44.372 10.674 44.503 10.66 44.736 10.543 C 45.014 10.397 45.086 10.426 45.275 10.674 C 45.479 10.981 45.537 10.981 53.771 10.981 L 62.05 10.981 L 63.742 10.324 C 65.332 9.696 65.463 9.667 65.842 9.871 C 66.846 10.397 68.85 13.566 68.746 14.456 C 68.701 14.822 68.643 14.851 67.87 14.895 C 67.2 14.924 67.01 14.997 66.835 15.274 L 66.615 15.61 L 60.669 15.698 L 54.722 15.8 L 54.357 16.224 L 53.977 16.662 L 48.438 17.041 C 45.391 17.246 42.811 17.45 42.694 17.494 C 42.548 17.538 42.519 17.742 42.576 18.312 C 42.633 18.721 42.734 19.13 42.821 19.217 C 43.04 19.436 42.995 19.977 42.732 20.196 C 42.571 20.327 41.973 20.429 41.172 20.473 L 39.86 20.546 L 37.986 23.905 C 36.201 27.089 36.098 27.308 36.097 28.082 C 36.095 28.564 36.022 28.972 35.919 29.06 C 35.584 29.323 31.223 30.374 30.116 30.462 C 29.518 30.506 28.789 30.462 28.513 30.389 Z" style="fill: rgb(255, 255, 255);" transform="matrix(0.908943, -0.41692, 0.41692, 0.908943, -3.949866, 21.915389)"/>
</svg>

<svg xmlns="http://www.w3.org/2000/svg" viewBox="0 0 200 40"><path d="m60.68 24.56-.83 4.8H48.5l3.28-18.71h5.67L55 24.56zm5.97 4.8h-5.67l3.28-18.71h5.67zm13.66-5.51.15-.81h-1.43l.8-4.58h6.84l-1.76 10q-3.65 1.34-7.31 1.34-3.68 0-5.3-1.47-1.62-1.46-1.62-4.51 0-1.3.41-3.8.9-5.21 3.17-7.52 2.25-2.3 7.51-2.3a21 21 0 0 1 2.82.24q1.72.24 2.52.54l-1.64 4.58q-2.24-.42-4.1-.42a8 8 0 0 0-2.67.3q-.81.3-.95 1.2l-1.47 8.46h1.88q1.02 0 1.5-.22.5-.23.65-1.04m22.94 5.5h-5.67l1.14-6.61h-4.27l-1.13 6.61h-5.67l3.28-18.7h5.67l-1.16 6.61h4.26l1.17-6.61h5.66zm19.6-18.7-.86 4.79h-4.12l-2.42 13.91h-5.66l2.41-13.91h-4.09l.87-4.8zm9.25 13.2.15-.81h-1.43l.8-4.58h6.83l-1.76 10q-3.63 1.34-7.3 1.34-3.68 0-5.3-1.47-1.63-1.46-1.63-4.51 0-1.3.42-3.8.9-5.21 3.16-7.52 2.28-2.3 7.52-2.3 1.11 0 2.82.24 1.72.24 2.52.54l-1.64 4.58a22 22 0 0 0-4.1-.42 8 8 0 0 0-2.67.3q-.81.3-.96 1.2l-1.46 8.46h1.88q1.02 0 1.5-.22.5-.23.65-1.04m10.2-13.2h5.67l-2.48 14.03h2.03q1.05 0 1.5-.28t.62-1.3l2.2-12.45h5.68l-1.85 10.5a24 24 0 0 1-1.04 4.1 7.5 7.5 0 0 1-1.62 2.64 5.6 5.6 0 0 1-2.58 1.5q-1.54.4-3.9.41-3.6 0-5.05-1.1-1.45-1.08-1.44-3.75 0-1.46.41-3.8zm31 18.7h-5.34l-3.05-6.64a1 1 0 0 1-.11-.6q0-.36.05-.84h-.23l-1.4 8.08h-5.67l3.28-18.7h5.34l3.04 6.64q.09.21.09.6 0 .36-.06.84h.24l1.43-8.08h5.67z" style="white-space:pre;fill:#fff"/><path d="M28.51 30.39c-.27-.09-.6-.22-.68-.3-.3-.24-.23-1.96.12-3.2.62-2.24 1.75-4.07 3.9-6.28 1.66-1.74 1.86-2.18 1.43-3.13-.26-.54-1.12-1.24-1.53-1.24-.13 0-.36-.1-.52-.22a1.5 1.5 0 0 0-.8-.22c-.69 0-.9-.18-1.59-1.39-.67-1.15-.68-1.33-.3-2.33l.28-.73.77-.08c.64-.07 1.04-.23 2.07-.92a6 6 0 0 1 1.6-.83 2 2 0 0 1 .81.3c.42.25.73.29 2.96.29 2.27 0 2.52.02 2.91.29.38.27.44.29.85.08.36-.2.43-.2.5-.01.06.17.15.19.46.04q.38-.16.52-.01c.12.12.26.12.53 0 .28-.12.38-.12.46.03.1.14.2.16.44.01.25-.11.38-.13.53 0 .14.13.27.12.5 0 .28-.14.36-.11.55.13.2.31.26.31 8.5.31h8.27l1.7-.66c1.58-.62 1.71-.65 2.1-.45 1 .53 3 3.7 2.9 4.59-.05.36-.1.4-.88.43-.67.03-.86.1-1.04.38l-.22.34-5.94.09-5.95.1-.36.42-.38.44-5.54.38c-3.05.2-5.63.41-5.75.45-.14.05-.17.25-.11.82.05.41.15.82.24.9.22.23.17.77-.09.99a4 4 0 0 1-1.56.27l-1.31.08-1.87 3.36c-1.79 3.18-1.9 3.4-1.9 4.17 0 .48-.07.9-.17.98-.34.26-4.7 1.31-5.8 1.4-.6.05-1.33 0-1.6-.07" style="fill:#fff" transform="rotate(-24.64 48.2 20)"/></svg>
